ui/StatusQ/src/assets/img/icons/edit-message.svg

<svg fill="none" height="22" viewBox="0 0 22 22" width="22" xmlns="http://www.w3.org/2000/svg"><path clip-rule="evenodd" d="m14.8383 2.97542c1.156-1.15603 3.0303-1.15603 4.1863 0 1.1561 1.15603 1.1561 3.03032 0 4.18635l-10.77235 10.77243c-.39159.3915-.8765.6769-1.40898.829l-3.857 1.102c-.2405.0687-.49934.0017-.6762-.1752s-.24393-.4357-.17522-.6762l1.10201-3.857c.15213-.5325.43746-1.0174.82904-1.409zm3.2124.97398c-.6182-.61811-1.6203-.61811-2.2384 0l-10.77242 10.7724c-.22606.2261-.39078.506-.4786.8134-.33188 1.1616.74202 2.2355 1.90359 1.9036.30739-.0878.58733-.2526.81339-.4786l10.77244-10.77241c.6181-.61812.6181-1.62028 0-2.23839z" fill="#4360df" fill-rule="evenodd"/></svg>

<svg width="22" height="22" viewBox="0 0 22 22" fill="none" xmlns="http://www.w3.org/2000/svg">
<path fill-rule="evenodd" clip-rule="evenodd" d="M14.8383 2.97542C15.9943 1.81939 17.8686 1.81939 19.0246 2.97542C20.1807 4.13145 20.1807 6.00574 19.0246 7.16177L8.25225 17.9342C7.86066 18.3257 7.37575 18.6111 6.84327 18.7632L2.98627 19.8652C2.74577 19.9339 2.48693 19.8669 2.31007 19.69C2.13321 19.5131 2.06614 19.2543 2.13485 19.0138L3.23686 15.1568C3.38899 14.6243 3.67432 14.1394 4.0659 13.7478L14.8383 2.97542ZM18.0507 3.9494C17.4325 3.33129 16.4304 3.33129 15.8123 3.9494L5.03988 14.7218C4.81382 14.9479 4.6491 15.2278 4.56128 15.5352C4.2294 16.6968 5.3033 17.7707 6.46487 17.4388C6.77226 17.351 7.0522 17.1862 7.27826 16.9602L18.0507 6.18779C18.6688 5.56967 18.6688 4.56751 18.0507 3.9494Z" fill="#4360DF"/>
</svg>
